X:203
T:John Mac Donald's
R:Reel
C:Dan Hugh MacEachern
S:Ossian - Borders
M:4/4
L:1/8
Q:1/4=160
K:G
|:E2 GF EGBG|cEBG cFFG|E2 GF EGBG|Ac (3Bcd eEED|
E2 GF EGBG|cEBG cFFG|ecdB cABG|Ac (3Bcd eEED:|
|:eBce B2 AG|Ac (3BAG cF F2|eBce B2 AG|Ac (3Bcd eE E2|
eBce B2 AG|Ac (3BAG cF F2|ecdB cABG |Ac (3Bcd eE E2:|
|:Begb e2Be|d2 Bd FAFD|Begb e2Be|1 fdAF GE E2:|2 fdAF GEEf|
g2 ge Begb|dfAd FD D2|gbeg Begb|fdAF GEEf|
g2 ge Begb|dfAd FD D2|geBe fdAF|GBFA GEFD|
Begb e3 f|gdBG FAFD|Begb e3 e|fdAF GE E2|
Begb e2 Be|(3fga fd (3FGA FD|Begb e2 Be|fdAF GEEf|
g2 ge Begb|dfAd FD D2|gbeg Begb|fdAF GEEa| 
g2 bg ebge|fdAG (3FGA FD|geBe fdAF|GB (3FGA (3GFE FD||
